docs/assets/images/qikify-white.svg

<?xml version="1.0" encoding="UTF-8"?>
<svg width="108px" height="108px" viewBox="0 0 108 108" version="1.1" xmlns="http://www.w3.org/2000/svg" xmlns:xlink="http://www.w3.org/1999/xlink">
    <title>Checkout Copy 5</title>
    <g id="Checkout-Copy-5" stroke="none" stroke-width="1" fill="none" fill-rule="evenodd">
        <path d="M29.1908792,42.5436358 L44.219881,42.5436358 C46.5184224,42.5436358 48.3817584,44.4069718 48.3817584,46.7055132 L48.3817584,89.0179336 C48.3817584,99.6167634 39.7897091,108.208813 29.1908792,108.208813 C18.5920493,108.208813 10,99.6167634 10,89.0179336 L10,61.734515 C10,51.1356851 18.5920493,42.5436358 29.1908792,42.5436358 Z M25.0365768,67.5149003 C28.7328619,67.5149003 31.7292931,64.5298936 31.7292931,60.8477012 C31.7292931,57.1655093 28.7328619,54.1805026 25.0365768,54.1805026 C21.3402917,54.1805026 18.3438605,57.1655093 18.3438605,60.8477012 C18.3438605,64.5298936 21.3402917,67.5149003 25.0365768,67.5149003 Z M76.5900386,0 L94.1624099,0 C96.4609515,0 98.3242873,1.86333599 98.3242873,4.16187741 L98.3242873,86.474564 C98.3242873,98.4780581 88.5935326,108.208813 76.5900386,108.208813 L59.0176673,108.208813 C56.7191258,108.208813 54.8557899,106.345477 54.8557899,104.046935 L54.8557899,21.7342487 C54.8557899,9.73075462 64.5865446,0 76.5900386,0 Z" id="Combined-Shape" fill="#FFFFFF" fill-rule="nonzero"></path>
    </g>
</svg>

<svg width="108" height="108" xmlns="http://www.w3.org/2000/svg"><path d="M29.19 42.544h15.03a4.162 4.162 0 0 1 4.162 4.162v42.312c0 10.599-8.592 19.19-19.191 19.19-10.599 0-19.191-8.591-19.191-19.19V61.735c0-10.6 8.592-19.191 19.19-19.191zm-4.153 24.97c3.696 0 6.692-2.984 6.692-6.666 0-3.682-2.996-6.667-6.692-6.667-3.697 0-6.693 2.985-6.693 6.667s2.996 6.667 6.693 6.667zM76.59 0h17.572a4.162 4.162 0 0 1 4.162 4.162v82.313c0 12.003-9.73 21.734-21.734 21.734H59.018a4.162 4.162 0 0 1-4.162-4.162V21.734C54.856 9.731 64.586 0 76.59 0z" fill="#FFF" fill-rule="nonzero"/></svg>
